X: 11200
T: Dunmore Lasses, The
R: reel
M: 4/4
K: Gmajor
|:"Em" E3F G3A|Beed Bee2|E3F GABG|"D" A2 BA GEFD|
"Em" E3F G3A|Beed e3f|"C"ge"D"fd "Em"edBG|1 "D"AcBA "Em"GEED:|2 "D"AcBA "Em"GE E2||
|:"Em"g2 eg "D"fedc|"Em"Be ~e2 Be ~e2|g2 eg "D"fedB|"Am7"AcBA "Em"GE ~E2|
g2 eg "D"fedc|"Cmaj7"Beed e3f|"Em"ge"D"fd "G"edBG|1 "Am7"AcBA "Em"GE E2:|2 "Am7"AcBA "Em"GEFD||

